X:1
T:Miss Williamson's Jigg. Roose.0118
T:Miss Williamson's Jigg. Roose.0118
L:1/8
Q:3/8=100
M:6/8
K:Bb
V:1 treble 
V:1
 D | B,BB BAG | Ccc cde | fbe dcB | AcB AGF | B,BB BAG | Ccc cde | fdB ceA |{c} BBB B2 :: f | %10
 fdB BAB | CcB AGF | GAB cfe | dBd cAF | fdB BAB | CcB AGF | Egg DEF | CcB{c} B2 :| %18

